X:445
T:Rakes of Mallow, The
T:Rakes of Marlowe, The
S:Many sessions, etc
Z:Nigel Gatherer
M:2/4
L:1/8
K:G
GB    GB | GB c/B/A/G/ | FA       FA       | FA d/c/B/A/ |
GB    GB | GB d2       | c/B/A/G/ F/G/A/B/ | GG G2      :|
gf/e/ dc | bc d2       | gf/e/    dc       | bc A2       |
gf/e/ dc | bc d2       | c/B/A/G/ F/G/A/B/ | GG G2      :|
<end>
<start>
